X:1
T:Fram Upon Him
S:Aly Bain
O:Shetland
M:6/8
Q:3/8=120
L:1/8
K:D
A| "D"F2A "A7"d2e| "D"fgf e2f| "G"g2f e2c| "Em"d2c "A7"B2A| "D"F2A "A7"d2e|
   "D"fgf "G"e2g| "D"fgf "A7"gec| "D"ddd d2 :| A| "D"F2A d2A| "G"BAG "D"F2D|
   "G"GBG "D"AFA| "Em"EEE "A7"E2A| "D"F2A d2A| "G"BAG "D"F2g|\
  "D"fdd "A7"efg| "D"fdd d2 :|
